src/assets/icons/svg/letter.svg

<svg width="24" height="20" viewBox="0 0 24 20" fill="none" xmlns="http://www.w3.org/2000/svg">
<path d="M23.0625 11.6641C23.5803 11.6641 24 11.2443 24 10.7266V4.58594C24 2.51819 22.3177 0.835938 20.25 0.835938H3.75C1.68225 0.835938 0 2.51819 0 4.58594V15.4141C0 17.4818 1.68225 19.1641 3.75 19.1641H20.25C22.3177 19.1641 24 17.4818 24 15.4141C24 14.8963 23.5803 14.4766 23.0625 14.4766C22.5447 14.4766 22.125 14.8963 22.125 15.4141C22.125 16.4479 21.2839 17.2891 20.25 17.2891H3.75C2.71613 17.2891 1.875 16.4479 1.875 15.4141V4.78459L10.0198 9.8492C10.6305 10.2289 11.3153 10.4188 12 10.4188C12.6847 10.4188 13.3695 10.2289 13.9802 9.8492L22.125 4.78459V10.7266C22.125 11.2443 22.5447 11.6641 23.0625 11.6641ZM12.9901 8.25691C12.3794 8.63664 11.6206 8.63669 11.0099 8.25691L2.6573 3.06306C2.96517 2.84153 3.34261 2.71094 3.75 2.71094H20.25C20.6574 2.71094 21.0348 2.84158 21.3427 3.06311L12.9901 8.25691Z" fill="black"/>
</svg>

<?xml version="1.0" encoding="iso-8859-1"?>
<!-- Generator: Adobe Illustrator 23.1.0, SVG Export Plug-In . SVG Version: 6.00 Build 0)  -->
<svg version="1.1" id="&#x421;&#x43B;&#x43E;&#x439;_1"
	 xmlns="http://www.w3.org/2000/svg" xmlns:xlink="http://www.w3.org/1999/xlink" x="0px" y="0px" viewBox="0 0 24 20"
	 style="enable-background:new 0 0 24 20;" xml:space="preserve">
<path d="M23.063,11.664c0.518,0,0.938-0.42,0.938-0.938V4.586c0-2.068-1.682-3.75-3.75-3.75H3.75C1.682,0.836,0,2.518,0,4.586
	v10.828c0,2.068,1.682,3.75,3.75,3.75h16.5c2.068,0,3.75-1.682,3.75-3.75c0-0.518-0.42-0.938-0.938-0.938s-0.938,0.42-0.938,0.938
	c0,1.034-0.841,1.875-1.875,1.875H3.75c-1.034,0-1.875-0.841-1.875-1.875V4.785l8.145,5.065c0.611,0.38,1.295,0.57,1.98,0.57
	s1.37-0.19,1.98-0.57l8.145-5.065v5.942C22.125,11.244,22.545,11.664,23.063,11.664z M12.99,8.257c-0.611,0.38-1.37,0.38-1.98,0
	L2.657,3.063C2.965,2.842,3.343,2.711,3.75,2.711h16.5c0.407,0,0.785,0.131,1.093,0.352L12.99,8.257z"/>
</svg>
